storage/app/icons/phosphoricons/duotone/jeep-duotone.svg

<svg xmlns="http://www.w3.org/2000/svg" fill="currentColor" viewBox="0 0 256 256"><path d="M224 96H32l10.65-49.68A8 8 0 0 1 50.47 40h155.06a8 8 0 0 1 7.82 6.32Z" opacity=".2"/><path d="M240 88h-9.53l-9.29-43.35A16.08 16.08 0 0 0 205.53 32H50.47a16.08 16.08 0 0 0-15.65 12.65L25.53 88H16a8 8 0 0 0 0 16h8v96a16 16 0 0 0 16 16h24a16 16 0 0 0 16-16v-24h96v24a16 16 0 0 0 16 16h24a16 16 0 0 0 16-16v-96h8a8 8 0 0 0 0-16M50.47 48h155.06l8.57 40H41.9ZM64 200H40v-24h24Zm128 0v-24h24v24Zm24-40h-64v-32a8 8 0 0 0-16 0v32h-16v-32a8 8 0 0 0-16 0v32H40v-56h176ZM56 132a12 12 0 1 1 12 12 12 12 0 0 1-12-12m120 0a12 12 0 1 1 12 12 12 12 0 0 1-12-12"/></svg>

<svg xmlns="http://www.w3.org/2000/svg" viewBox="0 0 256 256" fill="currentColor"><path d="M224,96H32L42.65,46.32A8,8,0,0,1,50.47,40H205.53a8,8,0,0,1,7.82,6.32Z" opacity="0.2"/><path d="M240,88h-9.53l-9.29-43.35A16.08,16.08,0,0,0,205.53,32H50.47A16.08,16.08,0,0,0,34.82,44.65L25.53,88H16a8,8,0,0,0,0,16h8v96a16,16,0,0,0,16,16H64a16,16,0,0,0,16-16V176h96v24a16,16,0,0,0,16,16h24a16,16,0,0,0,16-16V104h8a8,8,0,0,0,0-16ZM50.47,48H205.53l8.57,40H41.9ZM64,200H40V176H64Zm128,0V176h24v24Zm24-40H152V128a8,8,0,0,0-16,0v32H120V128a8,8,0,0,0-16,0v32H40V104H216ZM56,132a12,12,0,1,1,12,12A12,12,0,0,1,56,132Zm120,0a12,12,0,1,1,12,12A12,12,0,0,1,176,132Z"/></svg>
